public/images/aka-logo.svg

<svg width="61" height="55" viewBox="0 0 61 55" fill="none" xmlns="http://www.w3.org/2000/svg">
<g filter="url(#filter0_d_142_12647)">
<g filter="url(#filter1_d_142_12647)">
<path d="M45.9612 8.75191C47.077 5.622 50.8265 4.39216 52.0548 6.75316L58.1765 18.5173C59.2143 20.512 57.6005 23.6612 55.1582 24.4079L43.5816 27.9472C41.2006 28.6752 39.5874 26.6333 40.5063 24.0554L45.9612 8.75191Z" fill="#29DAFC" stroke="black" stroke-width="1.99212"/>
<path d="M12.219 19.3344C13.3348 16.2045 17.0843 14.9747 18.3127 17.3357L24.4343 29.0998C25.4721 31.0945 23.8583 34.2437 21.416 34.9904L9.83946 38.5297C7.45841 39.2577 5.84518 37.2158 6.76415 34.6379L12.219 19.3344Z" fill="#FB5CC7" stroke="black" stroke-width="1.99212"/>
<path d="M36.4988 8.7258C39.1809 7.90581 40.7653 10.5649 39.2492 13.342L35.6621 19.9094L39.0848 23.8483C40.6681 25.6707 39.0918 29.3657 36.3765 30.1958L28.19 32.6987C26.3489 33.2616 24.8562 32.1568 24.856 30.2317V15.7717C24.856 13.8463 26.3488 11.829 28.19 11.2661L36.4988 8.7258Z" fill="white" stroke="black" stroke-width="1.99212"/>
</g>
<path d="M26.3559 35.0169L18.8359 37.4753L17.8398 36.1057L40.8115 28.7598L40.936 30.4406L34.1636 32.5833L26.3559 35.0169Z" fill="black" stroke="black" stroke-width="0.124507"/>
<path d="M56.4996 24.7769L53.4492 26.52L54.6943 25.3371L56.4996 24.7769Z" fill="black" stroke="black" stroke-width="0.124507"/>
<g filter="url(#filter2_d_142_12647)">
<path d="M58.4036 23.9473C58.6583 23.8694 59.0445 23.8085 59.3578 24.0178L59.3587 24.0165C59.37 24.0235 59.3794 24.0339 59.3901 24.0413C59.4044 24.0519 59.4209 24.0599 59.4348 24.0718L59.433 24.0743C59.7293 24.3076 59.7921 24.6929 59.7967 24.9595L59.8255 26.6086C59.8307 26.9089 59.7712 27.3463 59.4627 27.7709C59.1469 28.2055 58.7332 28.3807 58.4823 28.4574L55.9646 29.2271L56.0117 31.9279L58.5295 31.1581C58.7841 31.0803 59.1704 31.0196 59.4837 31.2286L59.4846 31.2283C59.4958 31.2352 59.5053 31.2448 59.516 31.2521C59.5304 31.2628 59.5466 31.2716 59.5607 31.2836L59.5588 31.2851C59.8553 31.5183 59.9179 31.9037 59.9226 32.1703L59.9509 33.7931C59.9561 34.0934 59.8965 34.5309 59.5881 34.9553C59.2723 35.3898 58.8585 35.5641 58.6077 35.6408L55.4269 36.6133C54.2468 36.9741 53.1889 37.0542 52.4163 36.6346L52.4106 36.6314C51.6094 36.1851 51.2753 35.2741 51.2556 34.1486L51.1816 29.909C51.162 28.7835 51.461 27.6789 52.2381 26.7501C52.9883 25.852 54.0401 25.2814 55.2228 24.9198L58.4036 23.9473Z" fill="white" stroke="black" stroke-width="1.87932"/>
<path d="M43.9969 28.3514C44.244 28.2759 44.5112 28.2352 44.7692 28.2753L44.7701 28.273C44.7748 28.2737 44.7795 28.2758 44.7842 28.2766C44.7871 28.277 44.7907 28.2761 44.7936 28.2766L44.7927 28.2779C45.0618 28.321 45.2791 28.4466 45.4536 28.6L45.4546 28.5987L46.4289 29.4484L46.4219 29.048C46.4174 28.7857 46.4551 28.3375 46.7709 27.9028L46.8904 27.7544C47.177 27.4323 47.5129 27.2765 47.7642 27.1996L49.7207 26.6014C49.9755 26.5236 50.3608 26.4639 50.674 26.6732L50.6758 26.6707C50.6867 26.6774 50.6959 26.6867 50.7062 26.6937C50.721 26.7047 50.7375 26.7137 50.7519 26.7259L50.75 26.7285C51.0462 26.9617 51.1082 27.3474 51.1129 27.6139L51.2671 36.4475C51.2722 36.7477 51.2136 37.185 50.9052 37.6094C50.5895 38.044 50.1757 38.2182 49.9248 38.295L47.9683 38.8931C47.7041 38.9738 47.3203 39.0379 47.0003 38.8416L46.9605 38.8164L46.9243 38.7863C46.6387 38.5427 46.581 38.1578 46.5761 37.8817L46.5527 36.542L46.1108 36.1274L46.1437 38.0138C46.1489 38.3141 46.0893 38.7517 45.781 39.1761C45.4652 39.6106 45.0514 39.7849 44.8005 39.8616L42.845 40.4595C42.5808 40.5403 42.1962 40.6046 41.8761 40.4082L41.8362 40.3831L41.8009 40.3526C41.5154 40.109 41.4567 39.7245 41.4519 39.4483L41.2977 30.6147C41.2931 30.3524 41.3308 29.9042 41.6467 29.4694L41.7661 29.321C42.0529 28.9987 42.3895 28.8428 42.6409 28.766L43.9969 28.3514Z" fill="white" stroke="black" stroke-width="1.87932"/>
<path d="M28.4854 33.0936C28.7416 33.0153 29.0374 32.983 29.3105 33.0858L29.3115 33.0845C29.3164 33.0863 29.3208 33.0892 29.3256 33.091C29.3317 33.0934 29.3385 33.0944 29.3445 33.097L29.3436 33.0982C29.5256 33.1702 29.6678 33.2866 29.7782 33.4169L29.884 33.5583L29.8878 33.564L30.5873 34.6391L31.2327 33.1568L31.2381 33.1443C31.3483 32.8978 31.5072 32.6114 31.7428 32.3638L31.7594 32.3469L31.776 32.331C32.0422 32.0696 32.3348 31.9168 32.6057 31.8339L34.7182 31.1881C34.9729 31.1102 35.3582 31.0506 35.6715 31.2598L35.6733 31.2573C35.6862 31.2652 35.6973 31.2761 35.7094 31.2845C35.7223 31.2942 35.7368 31.3019 35.7494 31.3126L35.7475 31.3151C36.0438 31.5483 36.1067 31.9337 36.1113 32.2002L36.2655 41.0338C36.2707 41.3341 36.2111 41.7717 35.9027 42.1961C35.5869 42.6306 35.1732 42.8049 34.9223 42.8816L32.9144 43.4955C32.6503 43.5762 32.2665 43.6401 31.9465 43.4439L31.9057 43.4191L31.8704 43.3886C31.5848 43.145 31.5262 42.7605 31.5213 42.4843L31.486 40.4592C31.2951 40.5824 31.1029 40.6646 30.9263 40.7187L30.4042 40.8783C30.2229 40.9337 30.0316 40.9675 29.8414 40.964L29.8768 42.9871C29.8819 43.2873 29.8223 43.7249 29.514 44.1493C29.1982 44.5839 28.7844 44.7581 28.5336 44.8348L26.5911 45.4287C26.3269 45.5095 25.9423 45.5739 25.6222 45.3774L25.5823 45.3523L25.547 45.3219C25.2614 45.0783 25.2028 44.6937 25.198 44.4175L25.0438 35.5839C25.0392 35.3216 25.0769 34.8734 25.3928 34.4387L25.5122 34.2902C25.799 33.9679 26.1356 33.812 26.3869 33.7352L28.4854 33.0936Z" fill="white" stroke="black" stroke-width="1.87932"/>
<path d="M21.6505 35.1829C21.9286 35.0979 22.241 35.063 22.529 35.1646C22.5332 35.1661 22.538 35.167 22.5422 35.1685C22.5472 35.1703 22.5523 35.1717 22.5573 35.1737L22.5564 35.1749C22.8546 35.284 23.047 35.5116 23.1584 35.7801L23.1594 35.7798L24.3481 38.5271L24.4833 38.8539C24.6109 39.1751 24.7133 39.4795 24.7866 39.7664L24.7856 39.7667C24.8891 40.136 24.9534 40.5054 24.9598 40.8717L25.0226 44.4708C25.0278 44.771 24.9691 45.2084 24.6608 45.6327C24.3449 46.0675 23.9303 46.2418 23.6794 46.3185L21.7108 46.9204C21.441 47.0029 21.0712 47.0638 20.7527 46.8972L20.7139 46.8767L20.6778 46.8505C20.3579 46.6181 20.2847 46.2212 20.2794 45.9209L20.2625 44.9514L19.7516 45.1075L19.7686 46.0771C19.7738 46.3774 19.7141 46.8149 19.4058 47.2393C19.09 47.6739 18.6762 47.8482 18.4254 47.9249L16.509 48.5108C16.2448 48.5915 15.8602 48.6559 15.5402 48.4595L15.5003 48.4344L15.465 48.4039C15.1794 48.1603 15.1208 47.7758 15.1159 47.4996L15.0531 43.9005C15.0468 43.5377 15.0913 43.1349 15.1731 42.7055L15.1757 42.6939L15.1783 42.6813C15.2694 42.2515 15.4038 41.7586 15.577 41.2087L16.6576 37.7676C16.7545 37.4467 16.9281 37.1012 17.2192 36.8057L17.2321 36.7919L17.2459 36.7789C17.5348 36.5016 17.8532 36.3439 18.1428 36.2553L21.6505 35.1829Z" fill="white" stroke="black" stroke-width="1.87932"/>
<path d="M12.4586 37.9946C12.7134 37.9167 13.0986 37.8571 13.4119 38.0664L13.4137 38.0638C13.4266 38.0718 13.4377 38.0826 13.4499 38.0911C13.4627 38.1007 13.4773 38.1084 13.4898 38.1191L13.488 38.1216C13.7842 38.3549 13.8471 38.7403 13.8517 39.0068L13.8805 40.6559C13.8858 40.9562 13.8262 41.3936 13.5177 41.8182C13.2019 42.2528 12.7882 42.4279 12.5373 42.5047L9.92805 43.3024L9.97566 46.0305L10.0438 46.0097L10.0231 44.8233C10.0186 44.561 10.0563 44.1128 10.3721 43.6781C10.6805 43.2537 11.0782 43.0627 11.3654 42.9749L13.3863 42.357C13.641 42.2791 14.0272 42.2183 14.3405 42.4275L14.3424 42.4259C14.3602 42.4369 14.3754 42.451 14.3918 42.4629C14.4001 42.4693 14.4094 42.4746 14.4175 42.4815L14.4166 42.4818C14.7134 42.715 14.7748 43.1025 14.7794 43.3692L14.853 47.5814C14.8581 47.8816 14.7994 48.319 14.4911 48.7434C14.1753 49.1781 13.7607 49.3525 13.5098 49.4292L9.40345 50.6846C8.22336 51.0454 7.16547 51.1255 6.39284 50.7059L6.38716 50.7027C5.58599 50.2564 5.25184 49.3454 5.23219 48.2199L5.15795 43.9666C5.13833 42.8411 5.4373 41.7365 6.21444 40.8077L6.21996 40.8011C6.9698 39.9161 8.0193 39.3518 9.19933 38.9911L12.4586 37.9946Z" fill="white" stroke="black" stroke-width="1.87932"/>
<path d="M39.7048 29.6862C40.451 29.4581 41.0671 29.9058 41.0808 30.6859L41.1039 32.01C41.11 32.363 40.9908 32.7232 40.7903 33.0335C40.9995 33.2185 41.1299 33.5022 41.1361 33.8554L41.2352 39.5332C41.2486 40.3133 40.6546 41.1302 39.9085 41.3583L37.8278 41.9944C37.0817 42.2225 36.4656 41.7756 36.4518 40.9957L36.3527 35.3178C36.3465 34.9647 36.4657 34.6046 36.6662 34.2943C36.4571 34.1093 36.3266 33.8255 36.3205 33.4724L36.2974 32.1484C36.2837 31.3682 36.8778 30.5505 37.624 30.3224L39.7048 29.6862Z" fill="white" stroke="black" stroke-width="1.87932"/>
</g>
</g>
<defs>
<filter id="filter0_d_142_12647" x="-0.000933647" y="4.48096" width="60.8525" height="50.4281" filterUnits="userSpaceOnUse" color-interpolation-filters="sRGB">
<feFlood flood-opacity="0" result="BackgroundImageFix"/>
<feColorMatrix in="SourceAlpha" type="matrix" values="0 0 0 0 0 0 0 0 0 0 0 0 0 0 0 0 0 0 127 0" result="hardAlpha"/>
<feOffset dx="-4.25875" dy="2.94056"/>
<feComposite in2="hardAlpha" operator="out"/>
<feColorMatrix type="matrix" values="0 0 0 0 0 0 0 0 0 0 0 0 0 0 0 0 0 0 0.25 0"/>
<feBlend mode="normal" in2="BackgroundImageFix" result="effect1_dropShadow_142_12647"/>
<feBlend mode="normal" in="SourceGraphic" in2="effect1_dropShadow_142_12647" result="shape"/>
</filter>
<filter id="filter1_d_142_12647" x="2.93222" y="4.48096" width="56.517" height="36.7304" filterUnits="userSpaceOnUse" color-interpolation-filters="sRGB">
<feFlood flood-opacity="0" result="BackgroundImageFix"/>
<feColorMatrix in="SourceAlpha" type="matrix" values="0 0 0 0 0 0 0 0 0 0 0 0 0 0 0 0 0 0 127 0" result="hardAlpha"/>
<feOffset dx="-2.61465" dy="1.49409"/>
<feComposite in2="hardAlpha" operator="out"/>
<feColorMatrix type="matrix" values="0 0 0 0 0 0 0 0 0 0 0 0 0 0 0 0 0 0 1 0"/>
<feBlend mode="normal" in2="BackgroundImageFix" result="effect1_dropShadow_142_12647"/>
<feBlend mode="normal" in="SourceGraphic" in2="effect1_dropShadow_142_12647" result="shape"/>
</filter>
<filter id="filter2_d_142_12647" x="3.35988" y="22.8948" width="57.4917" height="29.5726" filterUnits="userSpaceOnUse" color-interpolation-filters="sRGB">
<feFlood flood-opacity="0" result="BackgroundImageFix"/>
<feColorMatrix in="SourceAlpha" type="matrix" values="0 0 0 0 0 0 0 0 0 0 0 0 0 0 0 0 0 0 127 0" result="hardAlpha"/>
<feOffset dx="-0.897936" dy="0.498854"/>
<feComposite in2="hardAlpha" operator="out"/>
<feColorMatrix type="matrix" values="0 0 0 0 0 0 0 0 0 0 0 0 0 0 0 0 0 0 1 0"/>
<feBlend mode="normal" in2="BackgroundImageFix" result="effect1_dropShadow_142_12647"/>
<feBlend mode="normal" in="SourceGraphic" in2="effect1_dropShadow_142_12647" result="shape"/>
</filter>
</defs>
</svg>

<svg xmlns="http://www.w3.org/2000/svg" width="61" height="55" fill="none" xmlns:v="https://vecta.io/nano"><style><![CDATA[.B{stroke:#000}.C{fill:#fff}.D{stroke-width:1.879}.E{stroke-width:1.992}.F{color-interpolation-filters:sRGB}.G{flood-opacity:0}.H{stroke-width:.125}]]></style><g filter="url(#A)" class="B"><g filter="url(#B)" class="E"><path d="M45.961 8.752c1.116-3.13 4.865-4.36 6.094-1.999l6.122 11.764c1.038 1.995-.576 5.144-3.018 5.891l-11.577 3.539c-2.381.728-3.994-1.314-3.075-3.892l5.455-15.303z" fill="#29dafc"/><path d="M12.219 19.334c1.116-3.13 4.865-4.36 6.094-1.999L24.434 29.1c1.038 1.995-.576 5.144-3.018 5.891L9.839 38.53c-2.381.728-3.994-1.314-3.075-3.892l5.455-15.304z" fill="#fb5cc7"/><path d="M36.499 8.726c2.682-.82 4.267 1.839 2.75 4.616l-3.587 6.567 3.423 3.939c1.583 1.822.007 5.517-2.708 6.348l-8.186 2.503c-1.841.563-3.334-.542-3.334-2.467v-14.46c0-1.925 1.493-3.943 3.334-4.506l8.309-2.54z" class="C"/></g><path d="M26.356 35.017l-7.52 2.458-.996-1.37 22.972-7.346.124 1.681-6.772 2.143-7.808 2.434z" fill="#000" class="H"/><path d="M56.5 24.777l-3.05 1.743 1.245-1.183 1.805-.56z" fill="#000" class="H"/><g filter="url(#C)" class="C D"><path d="M58.404 23.947c.255-.078.641-.139.954.071l.001-.001c.011.007.021.017.031.025s.031.019.045.03l-.002.003c.296.233.359.619.364.885l.029 1.649a1.9 1.9 0 0 1-.363 1.162c-.316.435-.73.61-.98.686l-2.518.77.047 2.701 2.518-.77c.255-.078.641-.139.954.07h.001c.011.007.021.017.031.024l.045.032-.002.002c.297.233.359.619.364.885l.028 1.623a1.9 1.9 0 0 1-.363 1.162c-.316.434-.73.609-.98.685l-3.181.973c-1.18.361-2.238.441-3.011.021l-.006-.003c-.801-.446-1.135-1.357-1.155-2.483l-.074-4.24c-.02-1.125.279-2.23 1.056-3.159.75-.898 1.802-1.469 2.985-1.83l3.181-.973z"/><path d="M43.997 28.351c.247-.076.514-.116.772-.076l.001-.002c.017.004.021.003.023.004l-.001.001c.269.043.486.169.661.322l.001-.001.974.85-.007-.4c-.005-.262.033-.71.349-1.145l.12-.148a1.91 1.91 0 0 1 .874-.555l1.956-.598c.255-.078.64-.138.953.072l.002-.003c.011.007.02.016.03.023l.046.032-.002.003c.296.233.358.619.363.885l.154 8.834a1.9 1.9 0 0 1-.362 1.162c-.316.435-.73.609-.98.686l-1.956.598c-.264.081-.648.145-.968-.051l-.04-.025-.036-.03c-.286-.244-.343-.628-.348-.905l-.023-1.34-.442-.415.033 1.886c.005.3-.054.738-.363 1.162-.316.434-.73.609-.98.686l-1.956.598c-.264.081-.649.145-.969-.051l-.04-.025-.035-.03c-.285-.244-.344-.628-.349-.904l-.154-8.834c-.005-.262.033-.71.349-1.145l.119-.148a1.91 1.91 0 0 1 .875-.555l1.356-.415z"/><path d="M28.485 33.094c.256-.078.552-.111.825-.008l.001-.001c.02.009.027.01.033.013l-.001.001a1.1 1.1 0 0 1 .435.319l.106.141.004.006.7 1.075.645-1.482.005-.012c.11-.247.269-.533.505-.781l.017-.017.017-.016c.266-.261.559-.414.83-.497l2.113-.646c.255-.078.64-.137.953.072l.002-.002c.013.008.024.019.036.027l.04.028-.002.003c.296.233.359.619.364.885l.154 8.834c.005.3-.054.738-.363 1.162-.316.434-.73.609-.98.685l-2.008.614c-.264.081-.648.145-.968-.052l-.041-.025-.035-.031c-.286-.244-.344-.628-.349-.904l-.035-2.025c-.191.123-.383.205-.56.259l-.522.16c-.181.055-.373.089-.563.086l.035 2.023c.005.3-.055.738-.363 1.162-.316.435-.73.609-.98.686l-1.942.594c-.264.081-.649.145-.969-.051l-.04-.025-.035-.03c-.286-.244-.344-.628-.349-.904l-.154-8.834c-.005-.262.033-.711.349-1.145l.119-.148a1.91 1.91 0 0 1 .875-.555l2.098-.642z"/><path d="M21.651 35.183c.278-.085.59-.12.878-.018l.028.009-.001.001c.298.109.491.337.602.605h.001l1.189 2.747.135.327c.128.321.23.626.303.912h-.001c.104.369.168.739.174 1.105l.063 3.599a1.9 1.9 0 0 1-.362 1.162c-.316.435-.73.609-.981.686l-1.969.602c-.27.082-.64.143-.958-.023l-.039-.02-.036-.026c-.32-.232-.393-.629-.398-.93l-.017-.97-.511.156.017.97c.005.3-.055.738-.363 1.162-.316.435-.73.609-.98.686l-1.916.586c-.264.081-.649.145-.969-.051l-.04-.025-.035-.03c-.286-.244-.344-.628-.349-.904l-.063-3.599c-.006-.363.038-.766.12-1.195l.003-.012.003-.013c.091-.43.226-.923.399-1.473l1.081-3.441a2.32 2.32 0 0 1 .562-.962l.013-.014.014-.013a2.22 2.22 0 0 1 .897-.524l3.508-1.072z"/><path d="M12.459 37.995c.255-.078.64-.137.953.072l.002-.003c.013.008.024.019.036.027l.04.028-.002.002c.296.233.359.619.364.885l.029 1.649a1.9 1.9 0 0 1-.363 1.162c-.316.435-.729.61-.98.687l-2.609.798.048 2.728.068-.021-.021-1.186c-.005-.262.033-.711.349-1.145a1.9 1.9 0 0 1 .993-.703l2.021-.618c.255-.078.641-.139.954.071l.002-.002c.018.011.033.025.049.037l.026.019h-.001c.297.233.358.621.363.887l.074 4.212a1.9 1.9 0 0 1-.362 1.162c-.316.435-.73.609-.981.686l-4.106 1.255c-1.18.361-2.238.441-3.011.021l-.006-.003c-.801-.446-1.135-1.357-1.155-2.483l-.074-4.253c-.02-1.126.279-2.23 1.056-3.159l.006-.007c.75-.885 1.799-1.449 2.979-1.81l3.259-.997z"/><path d="M39.705 29.686c.746-.228 1.362.22 1.376 1l.023 1.324c.006.353-.113.713-.314 1.023.209.185.34.469.346.822l.099 5.678c.013.78-.581 1.597-1.327 1.825l-2.081.636c-.746.228-1.362-.219-1.376-.999l-.099-5.678c-.006-.353.113-.713.314-1.023-.209-.185-.34-.469-.346-.822l-.023-1.324c-.014-.78.58-1.598 1.327-1.826l2.081-.636z"/></g></g><defs><filter id="A" x="-.001" y="4.481" width="60.853" height="50.428" filterUnits="userSpaceOnUse" class="F"><feFlood result="A" class="G"/><feColorMatrix in="SourceAlpha" values="0 0 0 0 0 0 0 0 0 0 0 0 0 0 0 0 0 0 127 0" result="B"/><feOffset dx="-4.25875" dy="2.94056"/><feComposite in2="B" operator="out"/><feColorMatrix values="0 0 0 0 0 0 0 0 0 0 0 0 0 0 0 0 0 0 0.25 0"/><feBlend in2="A"/><feBlend in="SourceGraphic"/></filter><filter id="B" x="2.932" y="4.481" width="56.517" height="36.73" filterUnits="userSpaceOnUse" class="F"><feFlood result="A" class="G"/><feColorMatrix in="SourceAlpha" values="0 0 0 0 0 0 0 0 0 0 0 0 0 0 0 0 0 0 127 0" result="B"/><feOffset dx="-2.61465" dy="1.49409"/><feComposite in2="B" operator="out"/><feColorMatrix values="0 0 0 0 0 0 0 0 0 0 0 0 0 0 0 0 0 0 1 0"/><feBlend in2="A"/><feBlend in="SourceGraphic"/></filter><filter id="C" x="3.36" y="22.895" width="57.492" height="29.573" filterUnits="userSpaceOnUse" class="F"><feFlood result="A" class="G"/><feColorMatrix in="SourceAlpha" values="0 0 0 0 0 0 0 0 0 0 0 0 0 0 0 0 0 0 127 0" result="B"/><feOffset dx="-0.897936" dy="0.498854"/><feComposite in2="B" operator="out"/><feColorMatrix values="0 0 0 0 0 0 0 0 0 0 0 0 0 0 0 0 0 0 1 0"/><feBlend in2="A"/><feBlend in="SourceGraphic"/></filter></defs></svg>
